!!!COM:      Bach, Johann Sebastian
!!!CDT:      1685/03/31/-1750/07/28/
!!!OPR@@GER: Das wohltemperirte Clavier
!!!OVM@@GER: Band I
!!!OPR@ENG:  Well-Tempered Clavier
!!!OVM@ENG:  Book I
!!!OTL:      Prelude
!!!OKY:      E minor
!!!ONM:      no. 10
!!!SCT:      BWV 855
!!!OMV:      1
**kern	**kern	**kern	**kern
*clefF4	*	*clefG2	*clefG2
*k[f#]	*	*k[f#]	*k[f#]
*e:	*	*e:	*e:
*M4/4	*	*M4/4	*M4/4
*met(c)	*	*met(c)	*met(c)
*MM56	*MM56	*MM56	*MM56
=1-	=1-	=1-	=1-
16E	1ryy	8g 8b	[2ee
16G	.	.	.
16A	.	8r	.
16B	.	.	.
16A	.	4r	.
16B	.	.	.
16A	.	.	.
16G	.	.	.
16E	.	8g 8b	8ee]
16G	.	.	.
16A	.	8r	32ff#
.	.	.	32ee
16B	.	.	32dd#
.	.	.	32ee
16A	.	4r	8.eeW
16B	.	.	.
16A	.	.	.
16G	.	.	32dd#
.	.	.	32ee
=2	=2	=2	=2
16E	1ryy	8a 8cc	[1ff#
16A	.	.	.
16B	.	8r	.
16c	.	.	.
16B	.	4r	.
16c	.	.	.
16B	.	.	.
16A	.	.	.
16E	.	8a 8cc	.
16A	.	.	.
16B	.	8r	.
16c	.	.	.
16B	.	4r	.
16c	.	.	.
16B	.	.	.
16A	.	.	.
=3	=3	=3	=3
16D#	1ryy	8a 8cc	16ff#]
16A	.	.	16ee
16B	.	8r	16dd#
16c	.	.	16ee
16B	.	4r	16ff#
16c	.	.	16ee
16B	.	.	16gg
16A	.	.	16ff#
16D#	.	8b 8ff#	[4aa
16A	.	.	.
16B	.	8r	.
16c	.	.	.
16B	.	4r	32aa]
.	.	.	32ccc
16c	.	.	32bb
.	.	.	32aa
16B	.	.	16gg
16A	.	.	32aa
.	.	.	32ff#
=4	=4	=4	=4
16E	1ryy	8b 8ee	[2gg
16G	.	.	.
16A	.	8r	.
16B	.	.	.
16A	.	4r	.
16B	.	.	.
16A	.	.	.
16G	.	.	.
16E	.	8b 8ee	8gg]
16G	.	.	.
16A	.	8r	16ccc
16B	.	.	16bb
16A	.	4r	8ccc
16B	.	.	.
16A	.	.	8ee
16G	.	.	.
=5	=5	=5	=5
16E	1ryy	8a 8cc	[2ff#
16F#	.	.	.
16G	.	8r	.
16A	.	.	.
16G	.	4r	.
16A	.	.	.
16G	.	.	.
16F#	.	.	.
16D	.	8b 8dd	8ff#]
16F#	.	.	.
16G	.	8r	[8bb
16A	.	.	.
16G	.	4r	32bb]
.	.	.	32ccc
16A	.	.	32bb
.	.	.	32aa
16G	.	.	32bb
.	.	.	32gg
16F#	.	.	32aa
.	.	.	32bb
=6	=6	=6	=6
16D	1ryy	8g 8b	[2ee
16E	.	.	.
16F#	.	8r	.
16G	.	.	.
16F#	.	4r	.
16G	.	.	.
16F#	.	.	.
16E	.	.	.
16C	.	8a 8cc	16ee]
16E	.	.	16cc
16F#	.	8r	16a
16G	.	.	16b
16F#	.	4r	16cc
16G	.	.	16ee
16F#	.	.	16dd
16E	.	.	32ee
.	.	.	32cc
=7	=7	=7	=7
16C	1ryy	8f# 8a	[2dd
16F#	.	.	.
16G	.	8r	.
16A	.	.	.
16G	.	4r	.
16A	.	.	.
16G	.	.	.
16F#	.	.	.
16BB	.	8g 8b	8dd]
16G	.	.	.
16A	.	8r	[8gg
16B	.	.	.
16A	.	4r	32gg]
.	.	.	32ffn
16B	.	.	32ee
.	.	.	32dd
16A	.	.	16cc
16G	.	.	32dd
.	.	.	32b
=8	=8	=8	=8
16BB	1ryy	8e 8g	[2cc
16E	.	.	.
16F#	.	8r	.
16G	.	.	.
16F#	.	4r	.
16G	.	.	.
16F#	.	.	.
16E	.	.	.
16AA	.	8f# 8a	16cc]
16F#	.	.	16dd
16G	.	8r	16ee
16A	.	.	16ff#
16G	.	4r	16gg
16A	.	.	16ff#
16G	.	.	16aa
16F#	.	.	16cc
=9	=9	=9	=9
.	.	.	8ccQ
16GG	1ryy	8d 8g	[2bp
16A	.	.	.
16B	.	8r	.
16c	.	.	.
16B	.	4r	.
16c	.	.	.
16B	.	.	.
16A	.	.	.
16G	.	8d 8g	8b]
16B	.	.	.
16c	.	8r	8b
16d	.	.	.
16c	.	4r	32a
.	.	.	32g
16d	.	.	16f#
16c	.	.	32g
.	.	.	32f#
16B	.	.	16e
=10	=10	=10	=10
16G	1ryy	8a 8cc#	[8ee
16c#	.	.	.
16d	.	8r	32ee]
.	.	.	32ff#
16e	.	.	32ee
.	.	.	32dd#
16d	.	4r	8.ee
16e	.	.	.
16d	.	.	.
16c#	.	.	16ff#
16F#	.	8a 8dd#X	4.ff#t
16d#	.	.	.
16e	.	8r	.
16f#	.	.	.
16e	.	4r	.
16f#	.	.	.
16e	.	.	16r
16d#	.	.	32ee
.	.	.	32ff#
=11	=11	=11	=11
16E	1ryy	8b 8ee	[2gg
16F#	.	.	.
16G	.	8r	.
16A	.	.	.
16G	.	4r	.
16A	.	.	.
16G	.	.	.
16F#	.	.	.
16E	.	8g 8b	16gg]
16G	.	.	16b
16A	.	8r	16a
16B	.	.	[16g
16A	.	4r	16g]
16B	.	.	32f#
.	.	.	32e
16A	.	.	16d#
16G	.	.	16e
=12	=12	=12	=12
16E	1ryy	8fn 8a	[8cc
16A	.	.	.
16B	.	8r	32cc]
.	.	.	32b
16c	.	.	32a
.	.	.	32b
16B	.	4r	32cc
.	.	.	32dd
16c	.	.	32cc
.	.	.	32b
16B	.	.	16cc
16A	.	.	16dd
16D	.	8fn 8b	4.ddT
16B	.	.	.
16c	.	8r	.
16d	.	.	.
16c	.	4r	.
16d	.	.	.
16c	.	.	16r
16B	.	.	32cc
.	.	.	32dd
=13	=13	=13	=13
16C	1ryy	8g 8cc	[2ee
16D	.	.	.
16E	.	8r	.
16Fn	.	.	.
16E	.	4r	.
16F	.	.	.
16E	.	.	.
16D	.	.	.
16C	.	8e 8g	8ee]
16E	.	.	.
16Fn	.	8r	16dd
16G	.	.	16cc
16F	.	4r	16dd
16G	.	.	16b
16F	.	.	16g#
16E	.	.	16a
=14	=14	=14	=14
16C	1ryy	8f#X 8a	[2dd
16F#X	.	.	.
16G	.	8r	.
16A	.	.	.
16G	.	4r	.
16A	.	.	.
16G	.	.	.
16F#	.	.	.
16BB	.	8g# 8b	16dd]
16G#	.	.	16ffn
16A	.	8r	16ee
16B	.	.	16dd
16A	.	4r	8.ccW
16B	.	.	.
16A	.	.	.
16G#	.	.	32dd
.	.	.	32b
=15	=15	=15	=15
16A	1ryy	8e 8a	[1cc
16B	.	.	.
16c	.	8r	.
16d	.	.	.
16c	.	4r	.
16d	.	.	.
16c	.	.	.
16B	.	.	.
16G	.	8e 8a	.
16A	.	.	.
16B	.	8r	.
16c	.	.	.
16B	.	4r	.
16c	.	.	.
16B	.	.	.
16A	.	.	.
=16	=16	=16	=16
16F#	1ryy	8d# 8a	4cc_
16A	.	.	.
16B	.	8r	.
16c	.	.	.
16B	.	4r	16cc]
16c	.	.	16a
16B	.	.	16g#
16A	.	.	16a
16E	.	8e 8a	16cc
16A	.	.	16a
16B	.	8r	16g#X
16c	.	.	16a
16B	.	4r	16e
16c	.	.	16a
16B	.	.	16g#
16A	.	.	16a
=17	=17	=17	=17
16D#	1ryy	8f# 8a	[2cc
16A	.	.	.
16B	.	8r	.
16c	.	.	.
16B	.	4r	.
16c	.	.	.
16B	.	.	.
16A	.	.	.
16D#X	.	8f# 8a	8cc]
16F#	.	.	.
16G	.	8r	8b
16A	.	.	.
16G	.	4r	8cc#
16A	.	.	.
16G	.	.	16ee
16F#	.	.	16dd#
=18	=18	=18	=18
16Dn	1ryy	8g# 8b	[1ee
16G#	.	.	.
16A	.	8r	.
16B	.	.	.
16A	.	4r	.
16B	.	.	.
16A	.	.	.
16G#	.	.	.
16C#	.	8a# 8cc#	.
16E	.	.	.
16F#	.	8r	.
16Gn	.	.	.
16F#	.	4r	.
16G	.	.	.
16F#	.	.	.
16E	.	.	.
=19	=19	=19	=19
16Cn	1ryy	8f# 8an	8ee]
16F#	.	.	.
16G	.	8r	16dd#
16A	.	.	16ff#
16G	.	4r	16aa
16A	.	.	16ccc
16G	.	.	16bb
16F#	.	.	16dd#
16BB	.	8g 8b	[2ee
16E	.	.	.
16F#	.	8r	.
16G	.	.	.
16F#	.	4r	.
16G	.	.	.
16F#	.	.	.
16E	.	.	.
=20	=20	=20	=20
16AA#	1ryy	8g 8cc#	4ee_
16E	.	.	.
16F#	.	8r	.
16G	.	.	.
16F#	.	4r	32ee]
.	.	.	32ff#
16G	.	.	32ee
.	.	.	32dd#
16F#	.	.	32ee
.	.	.	32cc#X
16E	.	.	16dd#
16BB	.	8f# 8b	4.dd#t
16F#	.	.	.
16G	.	8r	.
16An	.	.	.
16G	.	4r	.
16A	.	.	.
16G	.	.	8ee
16F#	.	.	.
=21	=21	=21	=21
16E	1ryy	8g 8b	[1ee
16G	.	.	.
16A	.	8r	.
16B	.	.	.
16A	.	4r	.
16B	.	.	.
16A	.	.	.
16G	.	.	.
16D	.	8g# 8b	.
16G#	.	.	.
16A	.	8r	.
16B	.	.	.
16A	.	4r	.
16B	.	.	.
16A	.	.	.
16G#	.	.	.
=22	=22	=22	=22
*MM50	*MM50	*MM50	*MM50
16C	1ryy	8a 8cc	2.ee_
16A	.	.	.
16B	.	8r	.
16c	.	.	.
16B	.	4r	.
16c	.	.	.
16B	.	.	.
16A	.	.	.
16G#	.	8b 8dd	.
16B	.	.	.
16c	.	8r	.
16d	.	.	.
16c	.	4r	4ee_
16d	.	.	.
16c	.	.	.
16B	.	.	.
=23	=23	=23	=23
*MM108	*MM108	*MM108	*MM108
16A	1ryy	8cc	16ee]
16c	.	.	16aa
16d	.	8ryy	16bb
16e	.	.	16ccc
16d	.	4ryy	16bb
16e	.	.	16ccc
16d	.	.	16bb
16c	.	.	16aa
16A	.	2ryy	16ee
16c	.	.	16aa
16d	.	.	16bb
16e	.	.	16ccc
16d	.	.	16bb
16e	.	.	16ccc
16d	.	.	16bb
16c	.	.	16aa
=24	=24	=24	=24
16A	1ryy	1ryy	16bb
16d	.	.	16aa
16e	.	.	16gg#
16fn	.	.	16aa
16e	.	.	16bb
16f	.	.	16aa
16e	.	.	16gg#
16d	.	.	16aa
16A	.	.	8dd
16d	.	.	.
16e	.	.	[8bb
16fn	.	.	.
16e	.	.	16bb]
16f	.	.	16aa
16e	.	.	16gg#X
16d	.	.	16aa
=25	=25	=25	=25
16G#	1ryy	1ryy	16ffn
16d	.	.	16b
16e	.	.	16cc
16fn	.	.	16dd
16e	.	.	16cc
16f	.	.	16dd
16e	.	.	16cc
16d	.	.	16b
16G#	.	.	16ee
16B	.	.	16dd
16c	.	.	16ee
16d	.	.	16ffn
16c	.	.	16ee
16d	.	.	16ff
16c	.	.	16ee
16B	.	.	16dd
=26	=26	=26	=26
16A	1ryy	1ryy	16cc
16B	.	.	16g#
16c	.	.	16a
16d	.	.	16b
16c	.	.	16a
16d	.	.	16g#
16c	.	.	16a
16B	.	.	16b
16A	.	.	16cc
16B	.	.	16aa
16c	.	.	16ggn
16d	.	.	16ffn
16c	.	.	16ee
16d	.	.	16ff
16c	.	.	16ee
16B	.	.	16dd
=27	=27	=27	=27
16G	1ryy	1ryy	16cc#
16c#	.	.	16ee
16d	.	.	16ff#X
16e	.	.	16gg
16d	.	.	16ff#
16e	.	.	16gg
16d	.	.	16ff#
16c#	.	.	16ee
16F#	.	.	16dd#
16d#	.	.	16ff#
16e	.	.	16gg
16f#	.	.	16aa
16e	.	.	16gg
16f#	.	.	16aa
16e	.	.	16gg
16d#	.	.	16ff#
=28	=28	=28	=28
16e	1ryy	1ryy	16gg
16E	.	.	16g
16F#	.	.	16a
16G	.	.	16b
16F#	.	.	16a
16G	.	.	16b
16F#	.	.	16a
16E	.	.	16g
16D	.	.	16ffn
16E	.	.	16g#
16Fn	.	.	16a
16Gn	.	.	16b
16F	.	.	16a
16G	.	.	16b
16F	.	.	16a
16E	.	.	16g#
=29	=29	=29	=29
16C	1ryy	1ryy	16ee
16F#X	.	.	16a
16G#	.	.	16b
16A	.	.	16cc
16G#	.	.	16b
16A	.	.	16cc
16G#	.	.	16b
16F#	.	.	16a
16BB	.	.	16dd
16G#X	.	.	16b
16A	.	.	16cc
16B	.	.	16dd
16A	.	.	16cc
16B	.	.	16dd
16A	.	.	16cc
16G#	.	.	16b
=30	=30	=30	=30
16A	1ryy	1ryy	16cc
16AA	.	.	16a
16BB	.	.	16g#
16C	.	.	16a
16BB	.	.	16e
16C	.	.	16a
16BB	.	.	16g#
16AA	.	.	16a
16GG	.	.	[2cc
16AA	.	.	.
16BB	.	.	.
16C	.	.	.
16BB	.	.	.
16C	.	.	.
16BB	.	.	.
16AA	.	.	.
=31	=31	=31	=31
16FF#	1ryy	1ryy	16cc]
16AA	.	.	16a
16BB	.	.	16g#
16C	.	.	16a
16BB	.	.	16d#
16C	.	.	16a
16BB	.	.	16g#
16AA	.	.	16a
16EE	.	.	16cc
16AA	.	.	16a
16BB	.	.	16g#
16C	.	.	16a
16BB	.	.	16e
16C	.	.	16a
16BB	.	.	16g#
16AA	.	.	16a
=32	=32	=32	=32
16DD#	1ryy	1ryy	16cc
16AA	.	.	16f#
16BB	.	.	16gn
16C	.	.	16a
16BB	.	.	16g
16C	.	.	16f#
16BB	.	.	16e
16AA	.	.	16d#
16EE	.	.	16b
16GG	.	.	16e
16AA	.	.	16f#
16BB	.	.	16g
16AA	.	.	16f#
16BB	.	.	16e
16AA	.	.	16d#X
16GG	.	.	16e
=33	=33	=33	=33
8CC	1ryy	1ryy	16a
.	.	.	16gg
8r	.	.	16aa
.	.	.	16bb
4r	.	.	16aa
.	.	.	16bb
.	.	.	16aa
.	.	.	16gg
16r	.	.	16a
16A	.	.	16ff#
16B	.	.	16gg
16c	.	.	16aa
16B	.	.	16gg
16c	.	.	16aa
16B	.	.	16gg
16A	.	.	16ff#
=34	=34	=34	=34
8C#	1ryy	2r	16a#
.	.	.	16ee
8r	.	.	16ff#
.	.	.	16gg
4r	.	.	16ff#
.	.	.	16gg
.	.	.	16ff#
.	.	.	16ee
16BB	.	16r	2dd#
16F#	.	16an	.
16G	.	16b	.
16A	.	16cc	.
16G	.	16b	.
16A	.	16cc	.
16G	.	16b	.
16F#	.	16a	.
=35	=35	=35	=35
16BB	1ryy	2g	16r
16G	.	.	16b
16A	.	.	16cc
16B	.	.	16dd
16A	.	.	16cc
16B	.	.	16dd
16A	.	.	16cc
16G	.	.	16b
16BB	.	16r	2a
16A	.	16f#	.
16B	.	16g	.
16c	.	16a	.
16B	.	16g	.
16c	.	16a	.
16B	.	16g	.
16A	.	16f#	.
=36	=36	=36	=36
16BB	1ryy	2e	16r
16B	.	.	16g
16c	.	.	16a
16d	.	.	16b
16c	.	.	16a
16d	.	.	16b
16c	.	.	16a
16B	.	.	16g
16BB	.	2d#	16r
16A	.	.	16f#
16B	.	.	16g
16c	.	.	16a
16B	.	.	16g
16c	.	.	16a
16B	.	.	16g
16A	.	.	16f#
=37	=37	=37	=37
16BB	1ryy	2c#	16r
16G	.	.	16e
16A	.	.	16f#
16B	.	.	16g
16A	.	.	16f#
16B	.	.	16g
16A	.	.	16f#
16G	.	.	16e
16BB	.	16r	2d#
16F#	.	16A	.
16G	.	16B	.
16A	.	16cn	.
16G	.	16B	.
16A	.	16c	.
16G	.	16B	.
16F#	.	16A	.
=38	=38	=38	=38
*	*staff:1	*	*
*	*clefF4	*	*
*	*k[f#]	*	*
16G	2ryy	2ryy	16B
16B	.	.	16c#
16A	.	.	16d#
16G	.	.	16e
16F#	.	.	16f#
16E	.	.	16g
16D#	.	.	16a
16F#	.	.	16b
2BB	16r	16r	2ccn
.	16D#	16f#	.
.	16E	16g	.
.	16F#	16a	.
.	16E	16g	.
.	16F#	16a	.
.	16E	16g	.
.	16D#	16f#	.
=39	=39	=39	=39
2BB	16r	16r	2cc#
.	16E	16g	.
.	16F#	16a	.
.	16G	16b	.
.	16F#	16a	.
.	16G	16b	.
.	16F#	16a	.
.	16E	16g	.
2BB	16r	16r	2dd#
.	16F#	16a	.
.	16G	16b	.
.	16A	16ccn	.
.	16G	16b	.
.	16A	16cc	.
.	16G	16b	.
.	16F#	16a	.
=40	=40	=40	=40
*MM100	*MM100	*MM100	*MM100
8C	8E	8g	16ee
.	.	.	16ddn
8r	8r	8r	16cc
.	.	.	16b
4r	4r	4r	16a
.	.	.	16g
.	.	.	16f#
.	.	.	16e
2ryy	16AA	2ryy	16cc
.	16BB	.	16b
.	16C	.	16a
.	16D	.	16g
.	16E	.	16f#
.	16F#	.	16e
.	16G	.	16d#
.	[16A	.	16c#
=41	=41	=41	=41
*MM90	*MM90	*MM90	*MM90
2BB	8.A]	16ryy	16d#
.	.	[8.B	16B
*MM80	*MM80	*MM80	*MM80
.	.	.	8f#
.	16A	.	.
*MM70	*MM70	*MM70	*MM70
.	8G	8B]	16r
.	.	.	8e
.	8F#	8A	.
*MM60	*MM60	*MM60	*MM60
.	.	.	16d#
2EE 2E	2G#	2B	2e
==	==	==	==
*-	*-	*-	*-
!!!AFR:  prelude
!!!EFL:  19/96
!!!END:  1994/01/12/
!!!VID:  3207913324 Bach, BWV 855-01
!!!AST:  Baroque
!!!OCY:  Deutschland
!!!ODT:  1722///
!!!PDT:  1801///
!!!EED:  Walter Hewlett
!!!ENC:  Walter Hewlett
!!!YOR:  Bach Gesellschaft Edition xiv
!!!AFT:  enhanced SCORE
!!!RDT:  2011/10/07/ by Andreas Kornstaedt using massScr2hmd
!!!SCA1: Thematisch-systematisches Verzeichnis der musikalischen Werke 
!!!SCA2: Johann Sebastian Bach: Bach-Werke-Verzeichnis (Schmieder)
!!!YEC1: Copyright 1994, 2000 Center for Computer Assisted Research 
!!!YEC2: in the Humanities
!!!YEM1: Rights to all derivative editions reserved.
!!!YEM2: Refer to licensing agreement for further details.
!!!YEN:  United States of America
!!!ref:  @{OTL}, @{SCT}
!!muse2ps: T^@{OTL} @{ONM} in @{OKY}^C^J.S. Bach\n@{SCT}-@{OMV}^
!!muse2ps: u^@{OPR@ENG}, @{OVM@ENG}^j
